symbols/web/speaker_notes/materialsymbolsrounded/speaker_notes_wght300grad200_24px.svg

<svg xmlns="http://www.w3.org/2000/svg" height="24" width="24"><path d="M10.675 7.125h6.775q.325 0 .538-.225.212-.225.212-.525 0-.325-.212-.537-.213-.213-.538-.213h-6.775q-.325 0-.537.213-.213.212-.213.537 0 .3.213.525.212.225.537.225Zm0 3.225h6.775q.325 0 .538-.213.212-.212.212-.537 0-.325-.212-.538-.213-.212-.538-.212h-6.775q-.325 0-.537.212-.213.213-.213.538 0 .325.213.537.212.213.537.213Zm0 3.225h3.675q.325 0 .538-.213.212-.212.212-.537 0-.3-.212-.525-.213-.225-.538-.225h-3.675q-.325 0-.537.225-.213.225-.213.525 0 .325.213.537.212.213.537.213ZM6.875 7.4q.425 0 .725-.313.3-.312.3-.712 0-.425-.3-.738-.3-.312-.725-.312t-.725.312q-.3.313-.3.738 0 .4.3.712.3.313.725.313Zm0 3.225q.425 0 .725-.3t.3-.725q0-.425-.3-.725t-.725-.3q-.425 0-.725.3t-.3.725q0 .425.3.725t.725.3Zm0 3.25q.425 0 .725-.313.3-.312.3-.737 0-.4-.3-.713-.3-.312-.725-.312t-.725.312q-.3.313-.3.713 0 .425.3.737.3.313.725.313Zm-5.175 5.3V3.85q0-1.025.713-1.738Q3.125 1.4 4.15 1.4h15.7q1.025 0 1.737.712.713.713.713 1.738v11.6q0 1.025-.713 1.738-.712.712-1.737.712H5.9l-2.15 2.125q-.575.575-1.312.263-.738-.313-.738-1.113ZM3.85 16.9 5 15.75h14.85q.125 0 .212-.088.088-.087.088-.212V3.85q0-.125-.088-.213-.087-.087-.212-.087H4.15q-.125 0-.212.087-.088.088-.088.213Zm0-13.05v-.3V16.9Z"/></svg>

<svg xmlns="http://www.w3.org/2000/svg" height="24" width="24"><path d="M10.675 7.125H17.45Q17.775 7.125 17.988 6.9Q18.2 6.675 18.2 6.375Q18.2 6.05 17.988 5.838Q17.775 5.625 17.45 5.625H10.675Q10.35 5.625 10.138 5.838Q9.925 6.05 9.925 6.375Q9.925 6.675 10.138 6.9Q10.35 7.125 10.675 7.125ZM10.675 10.35H17.45Q17.775 10.35 17.988 10.137Q18.2 9.925 18.2 9.6Q18.2 9.275 17.988 9.062Q17.775 8.85 17.45 8.85H10.675Q10.35 8.85 10.138 9.062Q9.925 9.275 9.925 9.6Q9.925 9.925 10.138 10.137Q10.35 10.35 10.675 10.35ZM10.675 13.575H14.35Q14.675 13.575 14.888 13.362Q15.1 13.15 15.1 12.825Q15.1 12.525 14.888 12.3Q14.675 12.075 14.35 12.075H10.675Q10.35 12.075 10.138 12.3Q9.925 12.525 9.925 12.825Q9.925 13.15 10.138 13.362Q10.35 13.575 10.675 13.575ZM6.875 7.4Q7.3 7.4 7.6 7.087Q7.9 6.775 7.9 6.375Q7.9 5.95 7.6 5.637Q7.3 5.325 6.875 5.325Q6.45 5.325 6.15 5.637Q5.85 5.95 5.85 6.375Q5.85 6.775 6.15 7.087Q6.45 7.4 6.875 7.4ZM6.875 10.625Q7.3 10.625 7.6 10.325Q7.9 10.025 7.9 9.6Q7.9 9.175 7.6 8.875Q7.3 8.575 6.875 8.575Q6.45 8.575 6.15 8.875Q5.85 9.175 5.85 9.6Q5.85 10.025 6.15 10.325Q6.45 10.625 6.875 10.625ZM6.875 13.875Q7.3 13.875 7.6 13.562Q7.9 13.25 7.9 12.825Q7.9 12.425 7.6 12.112Q7.3 11.8 6.875 11.8Q6.45 11.8 6.15 12.112Q5.85 12.425 5.85 12.825Q5.85 13.25 6.15 13.562Q6.45 13.875 6.875 13.875ZM1.7 19.175V3.85Q1.7 2.825 2.413 2.112Q3.125 1.4 4.15 1.4H19.85Q20.875 1.4 21.587 2.112Q22.3 2.825 22.3 3.85V15.45Q22.3 16.475 21.587 17.188Q20.875 17.9 19.85 17.9H5.9L3.75 20.025Q3.175 20.6 2.438 20.288Q1.7 19.975 1.7 19.175ZM3.85 16.9 5 15.75H19.85Q19.975 15.75 20.062 15.662Q20.15 15.575 20.15 15.45V3.85Q20.15 3.725 20.062 3.637Q19.975 3.55 19.85 3.55H4.15Q4.025 3.55 3.938 3.637Q3.85 3.725 3.85 3.85ZM3.85 3.85Q3.85 3.725 3.85 3.637Q3.85 3.55 3.85 3.55Q3.85 3.55 3.85 3.637Q3.85 3.725 3.85 3.85V15.45Q3.85 15.575 3.85 15.662Q3.85 15.75 3.85 15.75V16.9Z"/></svg>
